app/assets/images/icons/active/monorail.svg

<svg width="32" height="232" viewBox="0 0 32 232" xmlns="http://www.w3.org/2000/svg" xmlns:sketch="http://www.bohemiancoding.com/sketch/ns"><title>monorail</title><g sketch:type="MSPage" fill="none"><path d="M21.164 138.801c-.947 0-1.708.716-1.708 1.613 0 .885.761 1.598 1.708 1.598.94 0 1.702-.713 1.702-1.598 0-.897-.762-1.613-1.702-1.613zm1.575-12.782h-13.47c-.757 0-1.375.5-1.375 1.108v9.115c0 .612.618 1.102 1.375 1.102h13.47c.758 0 1.368-.49 1.368-1.102v-9.115c0-.608-.61-1.108-1.368-1.108zm3.761 15.596c0 1.213-1.229 2.215-2.744 2.215h-5.408v3.015h2.652c.599 0 1.098.487 1.098 1.081 0 .588-.499 1.074-1.098 1.074h-10.007c-.597 0-1.091-.486-1.091-1.074 0-.594.494-1.081 1.091-1.081h2.769v-3.015h-5.52c-1.504 0-2.742-1.002-2.742-2.215v-15.603c0-1.215 1.238-2.213 2.742-2.213h15.514c1.515 0 2.744.998 2.744 2.213v15.603zm-15.662-2.814c-.936 0-1.701.716-1.701 1.613 0 .885.765 1.598 1.701 1.598s1.713-.713 1.713-1.598c0-.897-.777-1.613-1.713-1.613zm0 0" fill="#206FAC" sketch:type="MSShapeGroup"/><path d="M21.164 98.801c-.947 0-1.708.716-1.708 1.613 0 .885.761 1.598 1.708 1.598.94 0 1.702-.713 1.702-1.598 0-.897-.762-1.613-1.702-1.613zm1.575-12.782h-13.47c-.757 0-1.375.5-1.375 1.108v9.115c0 .612.618 1.102 1.375 1.102h13.47c.758 0 1.368-.49 1.368-1.102v-9.115c0-.608-.61-1.108-1.368-1.108zm3.761 15.596c0 1.213-1.229 2.215-2.744 2.215h-5.408v3.015h2.652c.599 0 1.098.487 1.098 1.081 0 .588-.499 1.074-1.098 1.074h-10.007c-.597 0-1.091-.486-1.091-1.074 0-.594.494-1.081 1.091-1.081h2.769v-3.015h-5.52c-1.504 0-2.742-1.002-2.742-2.215v-15.603c0-1.215 1.238-2.213 2.742-2.213h15.514c1.515 0 2.744.998 2.744 2.213v15.603zm-15.662-2.814c-.936 0-1.701.716-1.701 1.613 0 .885.765 1.598 1.701 1.598s1.713-.713 1.713-1.598c0-.897-.777-1.613-1.713-1.613zm0 0" fill="#fff" sketch:type="MSShapeGroup"/><path d="M21.164 58.801c-.947 0-1.708.716-1.708 1.613 0 .885.761 1.598 1.708 1.598.94 0 1.702-.713 1.702-1.598 0-.897-.762-1.613-1.702-1.613zm1.575-12.782h-13.47c-.757 0-1.375.5-1.375 1.108v9.115c0 .612.618 1.102 1.375 1.102h13.47c.758 0 1.368-.49 1.368-1.102v-9.115c0-.608-.61-1.108-1.368-1.108zm3.761 15.596c0 1.213-1.229 2.215-2.744 2.215h-5.408v3.015h2.652c.599 0 1.098.487 1.098 1.081 0 .588-.499 1.074-1.098 1.074h-10.007c-.597 0-1.091-.486-1.091-1.074 0-.594.494-1.081 1.091-1.081h2.769v-3.015h-5.52c-1.504 0-2.742-1.002-2.742-2.215v-15.603c0-1.215 1.238-2.213 2.742-2.213h15.514c1.515 0 2.744.998 2.744 2.213v15.603zm-15.662-2.814c-.936 0-1.701.716-1.701 1.613 0 .885.765 1.598 1.701 1.598s1.713-.713 1.713-1.598c0-.897-.777-1.613-1.713-1.613zm0 0" fill="#67737B" sketch:type="MSShapeGroup"/><path d="M21.164 18.801c-.947 0-1.708.716-1.708 1.613 0 .885.761 1.598 1.708 1.598.94 0 1.702-.713 1.702-1.598 0-.897-.762-1.613-1.702-1.613zm1.575-12.782h-13.47c-.757 0-1.375.5-1.375 1.108v9.115c0 .612.618 1.102 1.375 1.102h13.47c.758 0 1.368-.49 1.368-1.102v-9.115c0-.608-.61-1.108-1.368-1.108zm3.761 15.596c0 1.213-1.229 2.215-2.744 2.215h-5.408v3.015h2.652c.599 0 1.098.487 1.098 1.081 0 .588-.499 1.074-1.098 1.074h-10.007c-.597 0-1.091-.486-1.091-1.074 0-.594.494-1.081 1.091-1.081h2.769v-3.015h-5.52c-1.504 0-2.742-1.002-2.742-2.215v-15.603c0-1.215 1.238-2.213 2.742-2.213h15.514c1.515 0 2.744.998 2.744 2.213v15.603zm-15.662-2.814c-.936 0-1.701.716-1.701 1.613 0 .885.765 1.598 1.701 1.598s1.713-.713 1.713-1.598c0-.897-.777-1.613-1.713-1.613zm0 0" fill="#3A434E" sketch:type="MSShapeGroup"/></g></svg>

<?xml version="1.0" encoding="UTF-8" standalone="no"?>
<svg width="32px" height="232px" viewBox="0 0 32 232" version="1.1" xmlns="http://www.w3.org/2000/svg" xmlns:xlink="http://www.w3.org/1999/xlink" xmlns:sketch="http://www.bohemiancoding.com/sketch/ns">
    <title>monorail</title>
    <description>Created with Sketch (http://www.bohemiancoding.com/sketch)</description>
    <defs></defs>
    <g id="Transport" stroke="none" stroke-width="1" fill="none" fill-rule="evenodd" sketch:type="MSPage">
        <path d="M21.164,138.801 C20.217,138.801 19.456,139.517 19.456,140.414 C19.456,141.299 20.217,142.012 21.164,142.012 C22.104,142.012 22.866,141.299 22.866,140.414 C22.866,139.517 22.104,138.801 21.164,138.801 L21.164,138.801 Z M22.739,126.019 L9.269,126.019 C8.512,126.019 7.894,126.519 7.894,127.127 L7.894,136.242 C7.894,136.854 8.512,137.344 9.269,137.344 L22.739,137.344 C23.497,137.344 24.107,136.854 24.107,136.242 L24.107,127.127 C24.107,126.519 23.497,126.019 22.739,126.019 L22.739,126.019 Z M26.5,141.615 C26.5,142.828 25.271,143.83 23.756,143.83 L18.348,143.83 L18.348,146.845 L21,146.845 C21.599,146.845 22.098,147.332 22.098,147.926 C22.098,148.514 21.599,149 21,149 L10.993,149 C10.396,149 9.902,148.514 9.902,147.926 C9.902,147.332 10.396,146.845 10.993,146.845 L13.762,146.845 L13.762,143.83 L8.242,143.83 C6.738,143.83 5.5,142.828 5.5,141.615 L5.5,126.012 C5.5,124.797 6.738,123.799 8.242,123.799 L23.756,123.799 C25.271,123.799 26.5,124.797 26.5,126.012 L26.5,141.615 L26.5,141.615 L26.5,141.615 L26.5,141.615 Z M10.838,138.801 C9.902,138.801 9.137,139.517 9.137,140.414 C9.137,141.299 9.902,142.012 10.838,142.012 C11.774,142.012 12.551,141.299 12.551,140.414 C12.551,139.517 11.774,138.801 10.838,138.801 L10.838,138.801 Z M10.838,138.801" id="monorail--white" fill="#206FAC" sketch:type="MSShapeGroup"></path>
        <path d="M21.164,98.801 C20.217,98.801 19.456,99.517 19.456,100.414 C19.456,101.299 20.217,102.012 21.164,102.012 C22.104,102.012 22.866,101.299 22.866,100.414 C22.866,99.517 22.104,98.801 21.164,98.801 L21.164,98.801 Z M22.739,86.019 L9.269,86.019 C8.512,86.019 7.894,86.519 7.894,87.127 L7.894,96.242 C7.894,96.854 8.512,97.344 9.269,97.344 L22.739,97.344 C23.497,97.344 24.107,96.854 24.107,96.242 L24.107,87.127 C24.107,86.519 23.497,86.019 22.739,86.019 L22.739,86.019 Z M26.5,101.615 C26.5,102.828 25.271,103.83 23.756,103.83 L18.348,103.83 L18.348,106.845 L21,106.845 C21.599,106.845 22.098,107.332 22.098,107.926 C22.098,108.514 21.599,109 21,109 L10.993,109 C10.396,109 9.902,108.514 9.902,107.926 C9.902,107.332 10.396,106.845 10.993,106.845 L13.762,106.845 L13.762,103.83 L8.242,103.83 C6.738,103.83 5.5,102.828 5.5,101.615 L5.5,86.012 C5.5,84.797 6.738,83.799 8.242,83.799 L23.756,83.799 C25.271,83.799 26.5,84.797 26.5,86.012 L26.5,101.615 L26.5,101.615 L26.5,101.615 L26.5,101.615 Z M10.838,98.801 C9.902,98.801 9.137,99.517 9.137,100.414 C9.137,101.299 9.902,102.012 10.838,102.012 C11.774,102.012 12.551,101.299 12.551,100.414 C12.551,99.517 11.774,98.801 10.838,98.801 L10.838,98.801 Z M10.838,98.801" id="monorail--subdued-grey" fill="#FFFFFF" sketch:type="MSShapeGroup"></path>
        <path d="M21.164,58.801 C20.217,58.801 19.456,59.517 19.456,60.414 C19.456,61.299 20.217,62.012 21.164,62.012 C22.104,62.012 22.866,61.299 22.866,60.414 C22.866,59.517 22.104,58.801 21.164,58.801 L21.164,58.801 Z M22.739,46.019 L9.269,46.019 C8.512,46.019 7.894,46.519 7.894,47.127 L7.894,56.242 C7.894,56.854 8.512,57.344 9.269,57.344 L22.739,57.344 C23.497,57.344 24.107,56.854 24.107,56.242 L24.107,47.127 C24.107,46.519 23.497,46.019 22.739,46.019 L22.739,46.019 Z M26.5,61.615 C26.5,62.828 25.271,63.83 23.756,63.83 L18.348,63.83 L18.348,66.845 L21,66.845 C21.599,66.845 22.098,67.332 22.098,67.926 C22.098,68.514 21.599,69 21,69 L10.993,69 C10.396,69 9.902,68.514 9.902,67.926 C9.902,67.332 10.396,66.845 10.993,66.845 L13.762,66.845 L13.762,63.83 L8.242,63.83 C6.738,63.83 5.5,62.828 5.5,61.615 L5.5,46.012 C5.5,44.797 6.738,43.799 8.242,43.799 L23.756,43.799 C25.271,43.799 26.5,44.797 26.5,46.012 L26.5,61.615 L26.5,61.615 L26.5,61.615 L26.5,61.615 Z M10.838,58.801 C9.902,58.801 9.137,59.517 9.137,60.414 C9.137,61.299 9.902,62.012 10.838,62.012 C11.774,62.012 12.551,61.299 12.551,60.414 C12.551,59.517 11.774,58.801 10.838,58.801 L10.838,58.801 Z M10.838,58.801" id="monorail--body-grey" fill="#67737B" sketch:type="MSShapeGroup"></path>
        <path d="M21.164,18.801 C20.217,18.801 19.456,19.517 19.456,20.414 C19.456,21.299 20.217,22.012 21.164,22.012 C22.104,22.012 22.866,21.299 22.866,20.414 C22.866,19.517 22.104,18.801 21.164,18.801 L21.164,18.801 Z M22.739,6.019 L9.269,6.019 C8.512,6.019 7.894,6.519 7.894,7.127 L7.894,16.242 C7.894,16.854 8.512,17.344 9.269,17.344 L22.739,17.344 C23.497,17.344 24.107,16.854 24.107,16.242 L24.107,7.127 C24.107,6.519 23.497,6.019 22.739,6.019 L22.739,6.019 Z M26.5,21.615 C26.5,22.828 25.271,23.83 23.756,23.83 L18.348,23.83 L18.348,26.845 L21,26.845 C21.599,26.845 22.098,27.332 22.098,27.926 C22.098,28.514 21.599,29 21,29 L10.993,29 C10.396,29 9.902,28.514 9.902,27.926 C9.902,27.332 10.396,26.845 10.993,26.845 L13.762,26.845 L13.762,23.83 L8.242,23.83 C6.738,23.83 5.5,22.828 5.5,21.615 L5.5,6.012 C5.5,4.797 6.738,3.799 8.242,3.799 L23.756,3.799 C25.271,3.799 26.5,4.797 26.5,6.012 L26.5,21.615 L26.5,21.615 L26.5,21.615 L26.5,21.615 Z M10.838,18.801 C9.902,18.801 9.137,19.517 9.137,20.414 C9.137,21.299 9.902,22.012 10.838,22.012 C11.774,22.012 12.551,21.299 12.551,20.414 C12.551,19.517 11.774,18.801 10.838,18.801 L10.838,18.801 Z M10.838,18.801" id="monorail--title-grey" fill="#3A434E" sketch:type="MSShapeGroup"></path>
    </g>
</svg>
